X: 4
T: The Maid I Never Forgot
R: reel
M: 4/4
L: 1/8
K: Emin
|:E3F G3A|B2 Ad dBAc|BGEF GAB^c|d2 e^c dBAF|
EB,EF GFGA|B2 Ad dBAc|BGEF GAB^c|1 dBAF GE E2:|2 dBAF GEEA | 
|B3d e3f|geaf gfed|BGEF GAB^c|d2 e^c dBAF|
~E2 BE dEcE|B2 Ad dBAc|BGEF GAB^c|dBAF GEEA|
|BABd edef|geaf gfed|BGEF GAB^c|dB e^c dBAF|
~E2 BE dEcE|B2 Ad dBAc|BGEF GAB^c|dBAF GE E2|